X:7003
T: The Lass o' Gowrie
R: march
B: RSCDS __-9
O:England
M: C|
L: 1/8
K: C
|: [GE][FD] \
| "C"[E2C2][G2E2] [G2E2][AF][BD] | [c3E3][dF] [c2E2][B2G2] \
| "F"A3G A2c2 | "G"d3e d2 GF \
| "C"E2G2 G2[AF]B | "Am"[c3E3][dF] [e3G4]d \
| "F"cBAG "C"c2E2 | "G7"D4 "C"C2 :|
|: gf \
| "C"e2g2 c3d | edef "(A7)"g2fe \
| "Dm"f2a2 d3e | "G7"fefg a2gf \
| "C"e2g2 "G7"d3e | "Am"cBcd e3d \
| "F"cBAG "C"c2E2 | "G7"D4 "C"C2 :|
